X: 347
T: Mori Shej Cigan Tanc
O: Hungary gypsy
D: Czsokolom - May I Kiss Your Hand
N: Adapted from Moishe Branner's transcription
F: http://www.youtube.com/watch?v=G6RLcLEeuQA
F: http://www.youtube.com/watch?v=bnafRoYiXgY
F: http://www.youtube.com/watch?v=W-DOTljkpio
M: C
L: 1/8
Q:1/4=120
K: Am
%%MIDI program 24
%%MIDI chordprog 0
%%MIDI bassprog 0
|: "Am"AA-AA-A3B   | AG-GA-A2 G2     |\
   "C"EE-EE-D3D    | ED-DE-E4        :|
|: "G"D4-D4        | E^FFG-G4        |\
   "Am"AB-BA-A2 G2 | ED-DC-C4        |
   "G"B,C D2 D2 D2 | "E7"E2 DC E2 DC |\
   "Am"A,2 A,2-A,4 | A,4-A,4         :|



